X: 9
T: MINUET
C: By Simon Stubley
R: minuet, waltz
Z: 2014 John Chambers <jc:trillian.mit.edu>
S: The Gentleman's Magazine v.23, April 1753, p.191
M: 3/8
L: 1/16
K: G
% - - - - - - - - - - - - - - - - - - - - - - - - - - - - -
% Voice 1 has 2 long staff lines.
V: 1
|:\
G2B2d2 | g4 f2 | egfedc | B2ABG2 |\
G2B2d2 | g4 f2 | e2B2T^c2 | d6 :|
|:\
d2edcB | cedcBA | BdcBAG | FGAFED |\
d2e2f2 | g2fedc | B2c2TA2 | G6 :|
% - - - - - - - - - - - - - - - - - - - - - - - - - - - - -
% Voice 2 preserves the original staff lines.
V:2 clef=bass middle=d
|:\
z6 | G2B2d2 | g4 f2 | g2d2B2 | G2g2f2 | e2^c2d2 |
g2a2A2 | d6 :||: b2g2e2 | a2f2d2 | g2e2c2 |
d2d'2c'2 | b4 a2 | g4 f2 | g2c2d2 | G6 :|

%%sep 1 1 500
%%sep 1 1 500
